dist/img/cube.svg

<svg width="395" height="414" viewBox="0 0 395 414" fill="none" xmlns="http://www.w3.org/2000/svg">
<path d="M170.59 411.603L35.7092 317.068L1.77806 97.0061L215.821 2.49453L357.577 91.7555L392.535 317.95L170.59 411.603Z" fill="white"/>
<path d="M170.59 411.603L35.7092 317.068L1.77806 97.0061M170.59 411.603L392.535 317.95L357.577 91.7555M170.59 411.603L133.117 187.769M357.577 91.7555L215.821 2.49453L1.77806 97.0061M357.577 91.7555L133.117 187.769M1.77806 97.0061L133.117 187.769" stroke="#181818" stroke-width="3.09152"/>
</svg>

<svg width="395" height="414" fill="none" xmlns="http://www.w3.org/2000/svg"><path d="M170.59 411.603L35.71 317.068 1.777 97.006 215.821 2.495l141.756 89.26 34.958 226.195-221.945 93.653z" fill="#fff"/><path d="M170.59 411.603L35.71 317.068 1.777 97.006M170.59 411.603l221.945-93.653-34.958-226.195M170.59 411.603l-37.473-223.834m224.46-96.014L215.821 2.495 1.778 97.006m355.799-5.25l-224.46 96.013M1.778 97.006l131.339 90.763" stroke="#181818" stroke-width="3.092"/></svg>
